X: 3
T: Ni er lili ya
L: 1/8
M: 3/4
K: G
d2e2e2 [I:setbarnb 1]| 
d6 | 
e d e ge2 | 
d2>g2 e d | 
B2B3A | 
d2B AG2 | 
A B A GE2 | 
D6 | 
G6 | 
D2G2B A | 
G A A GE2 | 
D6 |]

@@@ Tune index: 8671
